X:2299
T:Berry Dhoan 
T:The Brown Betty
S:Manx National Music - leaving out the restoration.
C:Traditional
Z:Clague collection
B:Kiaull Vannin #299 
B:Mona Melodies No.6
M:2/4 
L:1/8 
Q:160 
K:D 
d2 D2|F>G A2|d>e f2|e2 c2|d>e f2|d>A F2|G>E C2|D4|
D>E D2|F>G F2|f>d f2|e2 c2|d>e f2|d>A F2|G>E C2|D4||

